src/lib/packages/icons/src/assets/line/candy.svg

<svg width="24" height="24" viewBox="0 0 24 24" fill="none" xmlns="http://www.w3.org/2000/svg">
<path d="M20.44 6.11017C20.3 6.06017 20.21 5.95018 20.21 5.81018C20.21 4.81018 19.38 4.00018 18.37 4.00018C18.23 4.00018 18.1 3.91017 18.05 3.77017L17.95 3.49017C17.73 2.84017 17.17 2.38017 16.5 2.27017C15.82 2.16017 15.13 2.44018 14.73 3.00018C14.04 3.93018 13.73 4.92018 13.77 6.00018C13.21 5.83018 12.62 5.74017 12 5.74017C8.54998 5.74017 5.74998 8.54017 5.74998 11.9902C5.74998 12.6102 5.83999 13.2102 6.00999 13.7702C5.11999 13.7902 4.17998 14.0302 3.21998 14.5402C2.55998 14.8902 2.18998 15.5702 2.24998 16.3102C2.30998 17.0402 2.78997 17.6402 3.54997 17.8902C3.68997 17.9402 3.77998 18.0502 3.77998 18.1902C3.77998 19.1902 4.60997 20.0002 5.61997 20.0002C5.75997 20.0002 5.88998 20.0902 5.93998 20.2302L6.03999 20.5102C6.25999 21.1602 6.81997 21.6202 7.48997 21.7302C7.58997 21.7502 7.67998 21.7502 7.77998 21.7502C8.35998 21.7502 8.91997 21.4802 9.26997 21.0002C9.95997 20.0702 10.27 19.0802 10.23 18.0002C10.79 18.1702 11.38 18.2602 12 18.2602C15.45 18.2602 18.25 15.4602 18.25 12.0102C18.25 11.4002 18.16 10.8102 17.99 10.2502C18.88 10.2302 19.82 9.97017 20.77 9.46017C21.43 9.11017 21.8 8.43018 21.74 7.69018C21.68 6.96018 21.2 6.36017 20.44 6.11017ZM9.74998 16.1602V7.85019C10.21 7.60019 10.71 7.42017 11.25 7.33017V16.6802C10.71 16.5902 10.21 16.4102 9.74998 16.1602ZM12.75 7.33017C13.29 7.42017 13.79 7.60019 14.25 7.85019V16.1602C13.79 16.4102 13.29 16.5902 12.75 16.6802V7.33017ZM8.24998 9.12017V14.8802C7.62998 14.0802 7.24998 13.0902 7.24998 12.0002C7.24998 10.9102 7.62998 9.92018 8.24998 9.12017ZM8.05998 20.1102C7.94998 20.2602 7.78999 20.2602 7.72999 20.2502C7.65999 20.2402 7.51997 20.2002 7.45997 20.0202L7.35997 19.7402C7.11997 19.0002 6.41998 18.5002 5.62998 18.5002C5.44998 18.5002 5.28999 18.3602 5.28999 18.1902C5.28999 17.4102 4.78999 16.7202 3.97999 16.4502C3.79999 16.3902 3.75999 16.2602 3.75999 16.1902C3.75999 16.1302 3.75998 15.9702 3.93998 15.8802C4.95998 15.3402 5.88999 15.1702 6.72999 15.3302C7.21999 16.1002 7.85997 16.7502 8.61998 17.2502C8.87998 18.3402 8.71999 19.2302 8.06999 20.1102H8.05998ZM15.75 14.8802V9.12017C16.37 9.92018 16.75 10.9102 16.75 12.0002C16.75 13.0902 16.37 14.0802 15.75 14.8802ZM20.07 8.13018C19.05 8.67018 18.12 8.84017 17.28 8.68017C16.79 7.91017 16.15 7.26019 15.39 6.76019C15.13 5.67019 15.29 4.78017 15.94 3.90017C16.05 3.75017 16.21 3.75019 16.27 3.76019C16.34 3.77019 16.48 3.81017 16.54 3.99017L16.64 4.27017C16.88 5.01017 17.58 5.51019 18.37 5.51019C18.55 5.51019 18.71 5.65019 18.71 5.82019C18.71 6.60019 19.21 7.29018 20.02 7.56018C20.2 7.62018 20.24 7.75019 20.24 7.82019C20.24 7.88019 20.24 8.04018 20.06 8.13018H20.07Z" fill="currentColor"/>
</svg>

<svg xmlns="http://www.w3.org/2000/svg" width="24" height="24" fill="none"><path fill="currentColor" d="M20.44 6.11c-.14-.05-.23-.16-.23-.3 0-1-.83-1.81-1.84-1.81-.14 0-.27-.09-.32-.23l-.1-.28c-.22-.65-.78-1.11-1.45-1.22-.68-.11-1.37.17-1.77.73-.69.93-1 1.92-.96 3-.56-.17-1.15-.26-1.77-.26a6.252 6.252 0 0 0-5.99 8.03c-.89.02-1.83.26-2.79.77-.66.35-1.03 1.03-.97 1.77.06.73.54 1.33 1.3 1.58.14.05.23.16.23.3 0 1 .83 1.81 1.84 1.81.14 0 .27.09.32.23l.1.28a1.835 1.835 0 0 0 1.74 1.24c.58 0 1.14-.27 1.49-.75.69-.93 1-1.92.96-3 .56.17 1.15.26 1.77.26 3.45 0 6.25-2.8 6.25-6.25 0-.61-.09-1.2-.26-1.76.89-.02 1.83-.28 2.78-.79.66-.35 1.03-1.03.97-1.77-.06-.73-.54-1.33-1.3-1.58ZM9.75 16.16V7.85c.46-.25.96-.43 1.5-.52v9.35a4.77 4.77 0 0 1-1.5-.52Zm3-8.83c.54.09 1.04.27 1.5.52v8.31c-.46.25-.96.43-1.5.52V7.33Zm-4.5 1.79v5.76c-.62-.8-1-1.79-1-2.88 0-1.09.38-2.08 1-2.88Zm-.19 10.99c-.11.15-.27.15-.33.14a.322.322 0 0 1-.27-.23l-.1-.28c-.24-.74-.94-1.24-1.73-1.24-.18 0-.34-.14-.34-.31 0-.78-.5-1.47-1.31-1.74-.18-.06-.22-.19-.22-.26 0-.06 0-.22.18-.31 1.02-.54 1.95-.71 2.79-.55.49.77 1.13 1.42 1.89 1.92.26 1.09.1 1.98-.55 2.86h-.01Zm7.69-5.23V9.12c.62.8 1 1.79 1 2.88 0 1.09-.38 2.08-1 2.88Zm4.32-6.75c-1.02.54-1.95.71-2.79.55a6.408 6.408 0 0 0-1.89-1.92c-.26-1.09-.1-1.98.55-2.86.11-.15.27-.15.33-.14.07.01.21.05.27.23l.1.28c.24.74.94 1.24 1.73 1.24.18 0 .34.14.34.31 0 .78.5 1.47 1.31 1.74.18.06.22.19.22.26 0 .06 0 .22-.18.31h.01Z"/></svg>
